X: 38122
T: Sport Of The Chase, The
R: slip jig
M: 9/8
K: Amajor
d3 f2d faf|d3 f2d faf|G3 B2G BdB|A3 c2A cec|
d3 f2d faf|d3 f2d faf|G3 B2G BdB|A3 c2A cec||
D3 d2A FAF|D3 d2A FAF|G3 B2G BdB|A3 c2A cec|
dAF dAF D3|dAF dAF D3|G3 B2G BdB|A3 c2A cec||

